X:1
T:Magdalenapolskan
R:Slngpolska
O:Smland
D: Bjrlert, Lfberg, Pekkari - Mikaelidansen
M:3/4
L:1/8
K:Am
A3/2B/2|c/2d/2c/2B/2 A/2G/2A/2B/2 c/2B/2c/2d/2|e2 c2 cd/2e/2|ga/2g/2 ^f/2d/2^f/2a/2 a/2b/2a/2g/2|e4A3/2B/2|
c/2d/2c/2B/2 A/2G/2A/2B/2 c/2B/2c/2d/2|e2 c2 cd/2e/2|ga/2g/2 ^f/2d/2^f/2a/2 a/2b/2a/2g/2|[1 e4 A3/2B/2:||[2e4 ce|]
ga ^fa a/2b/2a/2g/2|e2 c4 ce|ga ^fa a/2b/2a/2g/2|e2 ce/2c/2 Be/2B/2|
Ac ec BA/2G/2|A2 A2 ce|ga ^fa a/2b/2a/2g/2|e2 c4 ce|
ga ^fa a/2b/2a/2g/2|e2 ce/2c/2 Be/2B/2|Ac ec BA/2G/2|A2 A4:|
